X: 31241
T: COTILLION No. 21. WOONSOCKET SETT tune 1
C:
%R: march, reel
B: Elias Howe "The Musician's Companion" Part 3 1844 p.124 #1
S: http://imslp.org/wiki/The_Musician's_Companion_(Howe,_Elias)
Z: 2015 John Chambers <jc:trillian.mit.edu>
M: 2/4
L: 1/16
K: C
% - - - - - - - - - - - - - - - - - - - - - - - - - - - - -
B3c |\
e3f d3e | c2A2G2E2 | B2c2 dcBc | d2d2d2 cd |\
e3f d3e | c2A2 G2E2 | G2c2 edce | e2c2c2 H|]
a2 |\
g2c2c2a2 | g2c2c2f2 | e2c2a3f | e3f g2a2 |\
g2c2c2a2 | g2c2c2f2 | e2c2g2e2 | d2e2 gfe"^D.C."d |]
% - - - - - - - - - - Dance description - - - - - - - - - -
%%begintext align
%% Ladies cross hands round and back,
%% gentlemen the same,
%% all balance to partners,
%% turn,
%% grand chain,
%% promenade eight.
%%endtext
% - - - - - - - - - - - - - - - - - - - - - - - - - - - - -
%%sep 1 1 300
